src/assets/images/worldwide.svg

<svg width="111" height="110" viewBox="0 0 111 110" fill="none" xmlns="http://www.w3.org/2000/svg">
<path d="M55.1992 10C56.3626 10 57.5157 10.0438 58.6569 10.1306C58.8717 10.3655 59.0855 10.6014 59.297 10.8394C57.9476 10.7158 56.5808 10.6522 55.1992 10.6522C30.7066 10.6522 10.8514 30.5074 10.8514 55C10.8514 79.4926 30.7066 99.3478 55.1992 99.3478C56.5808 99.3478 57.9476 99.2836 59.297 99.1599C59.0855 99.398 58.8717 99.6338 58.6569 99.8688C57.5157 99.9555 56.3626 100 55.1992 100C30.3464 100 10.1992 79.8528 10.1992 55C10.1992 30.1472 30.3464 10 55.1992 10ZM59.6116 10.214C82.3935 12.4311 100.199 31.636 100.199 55C100.199 78.364 82.3935 97.5682 59.6116 99.7854C59.8259 99.5459 60.0388 99.305 60.2497 99.0625C82.3641 96.5555 99.547 77.7848 99.547 55C99.547 32.2152 82.3642 13.4438 60.2497 10.9369C60.0388 10.6943 59.8259 10.4535 59.6116 10.214ZM59.297 10.8394C59.6155 10.8686 59.9332 10.901 60.2497 10.9369C70.5089 22.7318 76.721 38.1402 76.721 55C76.721 71.8596 70.5087 87.2676 60.2497 99.0625C59.9331 99.0984 59.6155 99.1308 59.297 99.1599C69.731 87.4137 76.0688 71.9471 76.0688 55C76.0688 38.0527 69.7312 22.5857 59.297 10.8394Z" fill="url(#paint0_linear_2466_2225)"/>
<path d="M55.1992 10C54.0358 10 52.8827 10.0438 51.7416 10.1306C51.5268 10.3655 51.3129 10.6014 51.1015 10.8394C52.4508 10.7158 53.8176 10.6522 55.1992 10.6522C79.6918 10.6522 99.547 30.5074 99.547 55C99.547 79.4926 79.6918 99.3478 55.1992 99.3478C53.8176 99.3478 52.4508 99.2836 51.1015 99.1599C51.3129 99.398 51.5268 99.6338 51.7416 99.8688C52.8828 99.9555 54.0358 100 55.1992 100C80.052 100 100.199 79.8528 100.199 55C100.199 30.1472 80.052 10 55.1992 10ZM50.7869 10.214C28.0049 12.4311 10.1992 31.636 10.1992 55C10.1992 78.364 28.005 97.5682 50.7869 99.7854C50.5725 99.5459 50.3597 99.305 50.1487 99.0625C28.0343 96.5555 10.8514 77.7848 10.8514 55C10.8514 32.2152 28.0343 13.4438 50.1487 10.9369C50.3597 10.6943 50.5725 10.4535 50.7869 10.214ZM51.1015 10.8394C50.7829 10.8686 50.4653 10.901 50.1487 10.9369C39.8896 22.7318 33.6775 38.1402 33.6775 55C33.6775 71.8596 39.8898 87.2676 50.1487 99.0625C50.4653 99.0984 50.7829 99.1308 51.1015 99.1599C40.6674 87.4137 34.3297 71.9471 34.3297 55C34.3297 38.0527 40.6672 22.5857 51.1015 10.8394Z" fill="url(#paint1_linear_2466_2225)"/>
<path d="M10.1992 55C10.1992 53.8366 10.2431 52.6835 10.3298 51.5423C10.5647 51.3275 10.8006 51.1137 11.0386 50.9023C10.915 52.2516 10.8514 53.6184 10.8514 55C10.8514 79.4926 30.7066 99.3478 55.1992 99.3478C79.6918 99.3478 99.547 79.4926 99.547 55C99.547 53.6184 99.4828 52.2516 99.3592 50.9023C99.5972 51.1137 99.8331 51.3275 100.068 51.5423C100.155 52.6835 100.199 53.8366 100.199 55C100.199 79.8528 80.052 100 55.1992 100C30.3464 100 10.1992 79.8528 10.1992 55ZM10.4132 50.5876C12.6303 27.8057 31.8352 10 55.1992 10C78.5632 10 97.7674 27.8057 99.9846 50.5876C99.7451 50.3733 99.5043 50.1604 99.2617 49.9495C96.7547 27.8351 77.984 10.6522 55.1992 10.6522C32.4144 10.6522 13.6431 27.8351 11.1361 49.9495C10.8935 50.1604 10.6527 50.3733 10.4132 50.5876ZM11.0386 50.9023C11.0678 50.5837 11.1002 50.2661 11.1361 49.9495C22.931 39.6904 38.3394 33.4783 55.1992 33.4783C72.0589 33.4783 87.4668 39.6906 99.2617 49.9495C99.2976 50.2661 99.33 50.5837 99.3592 50.9023C87.6129 40.4682 72.1463 34.1304 55.1992 34.1304C38.2519 34.1304 22.785 40.468 11.0386 50.9023Z" fill="url(#paint2_linear_2466_2225)"/>
<path d="M10.1992 55C10.1992 56.1634 10.2431 57.3165 10.3298 58.4577C10.5647 58.6725 10.8006 58.8863 11.0386 59.0977C10.915 57.7484 10.8514 56.3816 10.8514 55C10.8514 30.5074 30.7066 10.6522 55.1992 10.6522C79.6918 10.6522 99.547 30.5074 99.547 55C99.547 56.3816 99.4828 57.7484 99.3592 59.0977C99.5972 58.8863 99.8331 58.6725 100.068 58.4577C100.155 57.3165 100.199 56.1634 100.199 55C100.199 30.1472 80.052 10 55.1992 10C30.3464 10 10.1992 30.1472 10.1992 55ZM10.4132 59.4124C12.6303 82.1943 31.8352 100 55.1992 100C78.5632 100 97.7674 82.1942 99.9846 59.4124C99.7451 59.6267 99.5043 59.8396 99.2617 60.0505C96.7547 82.1649 77.984 99.3478 55.1992 99.3478C32.4144 99.3478 13.6431 82.1649 11.1361 60.0505C10.8935 59.8396 10.6527 59.6267 10.4132 59.4124ZM11.0386 59.0977C11.0678 59.4163 11.1002 59.7339 11.1361 60.0505C22.931 70.3096 38.3394 76.5217 55.1992 76.5217C72.0589 76.5217 87.4668 70.3094 99.2617 60.0505C99.2976 59.7339 99.33 59.4163 99.3592 59.0977C87.6129 69.5318 72.1463 75.8696 55.1992 75.8696C38.2519 75.8696 22.785 69.532 11.0386 59.0977Z" fill="url(#paint3_linear_2466_2225)"/>
<circle cx="55.5257" cy="54.6739" r="36.1957" fill="url(#paint4_linear_2466_2225)"/>
<circle opacity="0.4" cx="42.7174" cy="42.7174" r="42.7174" transform="matrix(-1 0 0 1 98.2422 11.9565)" fill="url(#paint5_linear_2466_2225)"/>
<rect x="55.1992" y="10" width="0.652174" height="90" fill="url(#paint6_linear_2466_2225)"/>
<rect x="10.5253" y="55.326" width="0.652174" height="90" transform="rotate(-90 10.5253 55.326)" fill="url(#paint7_linear_2466_2225)"/>
<defs>
<linearGradient id="paint0_linear_2466_2225" x1="100.199" y1="55" x2="10.1992" y2="55" gradientUnits="userSpaceOnUse">
<stop stop-color="white"/>
<stop offset="1" stop-opacity="0"/>
</linearGradient>
<linearGradient id="paint1_linear_2466_2225" x1="10.1992" y1="55" x2="100.199" y2="55" gradientUnits="userSpaceOnUse">
<stop stop-color="white"/>
<stop offset="1" stop-opacity="0"/>
</linearGradient>
<linearGradient id="paint2_linear_2466_2225" x1="100.199" y1="55" x2="10.1992" y2="55" gradientUnits="userSpaceOnUse">
<stop stop-color="white"/>
<stop offset="1" stop-opacity="0"/>
</linearGradient>
<linearGradient id="paint3_linear_2466_2225" x1="55.1992" y1="10" x2="55.1992" y2="100" gradientUnits="userSpaceOnUse">
<stop stop-color="white"/>
<stop offset="1" stop-opacity="0"/>
</linearGradient>
<linearGradient id="paint4_linear_2466_2225" x1="89.7608" y1="32.4635" x2="48.3559" y2="86.6669" gradientUnits="userSpaceOnUse">
<stop stop-color="white"/>
<stop offset="1" stop-opacity="0"/>
</linearGradient>
<linearGradient id="paint5_linear_2466_2225" x1="95.5435" y1="77.9348" x2="19.8913" y2="11.413" gradientUnits="userSpaceOnUse">
<stop stop-color="white"/>
<stop offset="1" stop-opacity="0"/>
</linearGradient>
<linearGradient id="paint6_linear_2466_2225" x1="55.5253" y1="10" x2="55.5253" y2="100" gradientUnits="userSpaceOnUse">
<stop stop-color="white" stop-opacity="0"/>
<stop offset="0.5" stop-color="white"/>
<stop offset="1" stop-color="white" stop-opacity="0"/>
</linearGradient>
<linearGradient id="paint7_linear_2466_2225" x1="10.8514" y1="55.326" x2="10.8514" y2="145.326" gradientUnits="userSpaceOnUse">
<stop stop-color="white" stop-opacity="0"/>
<stop offset="0.5" stop-color="white"/>
<stop offset="1" stop-color="white" stop-opacity="0"/>
</linearGradient>
</defs>
</svg>

<svg xmlns="http://www.w3.org/2000/svg" width="111" height="110" fill="none" viewBox="0 0 111 110"><path fill="url(#a)" d="M55.2 10q1.745 0 3.457.13.323.353.64.71a45 45 0 0 0-4.098-.188c-24.492 0-44.348 19.855-44.348 44.348S30.707 99.348 55.2 99.348q2.074-.001 4.098-.188-.317.357-.64.709A46 46 0 0 1 55.2 100c-24.853 0-45-20.147-45-45s20.147-45 45-45m4.412.214C82.394 12.431 100.199 31.636 100.199 55S82.394 97.568 59.612 99.785q.321-.36.638-.722C82.364 96.555 99.547 77.785 99.547 55S82.364 13.444 60.25 10.937q-.317-.364-.638-.723m-.315.625q.478.045.953.098C70.509 22.732 76.72 38.14 76.72 55s-6.211 32.268-16.47 44.063q-.476.053-.953.097C69.731 87.414 76.069 71.947 76.069 55S69.73 22.586 59.297 10.84"/><path fill="url(#b)" d="M55.2 10q-1.746 0-3.458.13-.324.353-.64.71a45 45 0 0 1 4.097-.188c24.493 0 44.348 19.855 44.348 44.348S79.692 99.348 55.199 99.348q-2.072-.001-4.097-.188.316.357.64.709 1.711.13 3.457.131c24.853 0 45-20.147 45-45s-20.147-45-45-45m-4.413.214C28.005 12.431 10.199 31.636 10.199 55s17.806 42.568 40.588 44.785a68 68 0 0 1-.638-.722C28.034 96.555 10.85 77.785 10.85 55s17.184-41.556 39.3-44.063q.315-.364.638-.723m.315.625q-.48.045-.953.098C39.889 22.732 33.678 38.14 33.678 55s6.212 32.268 16.47 44.063q.476.053.953.097C40.668 87.414 34.33 71.947 34.33 55s6.337-32.414 16.772-44.16"/><path fill="url(#c)" d="M10.2 55q0-1.745.13-3.458.351-.322.709-.64A45 45 0 0 0 10.85 55c0 24.493 19.856 44.348 44.348 44.348 24.493 0 44.348-19.855 44.348-44.348q-.001-2.073-.188-4.098.357.318.709.64.13 1.713.131 3.458c0 24.853-20.147 45-45 45s-45-20.147-45-45m.213-4.412C12.63 27.806 31.835 10 55.2 10s42.568 17.806 44.786 40.588q-.36-.323-.723-.639C96.756 27.835 77.985 10.652 55.2 10.652S13.643 27.835 11.136 49.95q-.363.315-.723.638m.626.314q.043-.477.097-.953C22.931 39.69 38.34 33.48 55.2 33.48s32.268 6.212 44.063 16.47q.054.476.097.953C87.613 40.468 72.146 34.13 55.2 34.13s-32.414 6.338-44.16 16.772"/><path fill="url(#d)" d="M10.2 55q0 1.745.13 3.458.351.322.709.64A45 45 0 0 1 10.85 55c0-24.493 19.856-44.348 44.348-44.348 24.493 0 44.348 19.855 44.348 44.348q-.001 2.073-.188 4.098.357-.318.709-.64.13-1.713.131-3.458c0-24.853-20.147-45-45-45s-45 20.147-45 45m.213 4.412C12.63 82.194 31.835 100 55.2 100s42.568-17.806 44.786-40.588q-.36.323-.723.639C96.756 82.165 77.985 99.348 55.2 99.348S13.643 82.165 11.136 60.05q-.363-.316-.723-.639m.626-.314q.043.477.097.953C22.931 70.31 38.34 76.52 55.2 76.52s32.268-6.212 44.063-16.47q.054-.476.097-.953C87.613 69.532 72.146 75.87 55.2 75.87s-32.414-6.338-44.16-16.772"/><circle cx="55.526" cy="54.674" r="36.196" fill="url(#e)"/><circle cx="42.717" cy="42.717" r="42.717" fill="url(#f)" opacity=".4" transform="matrix(-1 0 0 1 98.242 11.957)"/><path fill="url(#g)" d="M55.199 10h.652v90h-.652z"/><path fill="url(#h)" d="M10.525 55.326h.652v90h-.652z" transform="rotate(-90 10.525 55.326)"/><defs><linearGradient id="a" x1="100.199" x2="10.199" y1="55" y2="55" gradientUnits="userSpaceOnUse"><stop stop-color="#fff"/><stop offset="1" stop-opacity="0"/></linearGradient><linearGradient id="b" x1="10.199" x2="100.199" y1="55" y2="55" gradientUnits="userSpaceOnUse"><stop stop-color="#fff"/><stop offset="1" stop-opacity="0"/></linearGradient><linearGradient id="c" x1="100.199" x2="10.199" y1="55" y2="55" gradientUnits="userSpaceOnUse"><stop stop-color="#fff"/><stop offset="1" stop-opacity="0"/></linearGradient><linearGradient id="d" x1="55.199" x2="55.199" y1="10" y2="100" gradientUnits="userSpaceOnUse"><stop stop-color="#fff"/><stop offset="1" stop-opacity="0"/></linearGradient><linearGradient id="e" x1="89.761" x2="48.356" y1="32.464" y2="86.667" gradientUnits="userSpaceOnUse"><stop stop-color="#fff"/><stop offset="1" stop-opacity="0"/></linearGradient><linearGradient id="f" x1="95.543" x2="19.891" y1="77.935" y2="11.413" gradientUnits="userSpaceOnUse"><stop stop-color="#fff"/><stop offset="1" stop-opacity="0"/></linearGradient><linearGradient id="g" x1="55.525" x2="55.525" y1="10" y2="100" gradientUnits="userSpaceOnUse"><stop stop-color="#fff" stop-opacity="0"/><stop offset=".5" stop-color="#fff"/><stop offset="1" stop-color="#fff" stop-opacity="0"/></linearGradient><linearGradient id="h" x1="10.851" x2="10.851" y1="55.326" y2="145.326" gradientUnits="userSpaceOnUse"><stop stop-color="#fff" stop-opacity="0"/><stop offset=".5" stop-color="#fff"/><stop offset="1" stop-color="#fff" stop-opacity="0"/></linearGradient></defs></svg>
